src/assets/images/ic_baseline-whatsapp.svg

<svg width="30" height="31" viewBox="0 0 30 31" fill="none" xmlns="http://www.w3.org/2000/svg">
<g id="ic:baseline-whatsapp">
<path id="Vector" d="M23.8125 6.57898C22.6665 5.42139 21.3015 4.50357 19.797 3.87904C18.2926 3.25452 16.6789 2.93581 15.05 2.94148C8.225 2.94148 2.6625 8.50398 2.6625 15.329C2.6625 17.5165 3.2375 19.6415 4.3125 21.5165L2.5625 27.9415L9.125 26.2165C10.9375 27.204 12.975 27.729 15.05 27.729C21.875 27.729 27.4375 22.1665 27.4375 15.3415C27.4375 12.029 26.15 8.91648 23.8125 6.57898ZM15.05 25.629C13.2 25.629 11.3875 25.129 9.8 24.1915L9.425 23.9665L5.525 24.9915L6.5625 21.1915L6.3125 20.804C5.28468 19.1627 4.73893 17.2655 4.7375 15.329C4.7375 9.65398 9.3625 5.02898 15.0375 5.02898C17.7875 5.02898 20.375 6.10398 22.3125 8.05398C23.2719 9.00893 24.0321 10.1448 24.5492 11.3958C25.0664 12.6467 25.33 13.9879 25.325 15.3415C25.35 21.0165 20.725 25.629 15.05 25.629ZM20.7 17.929C20.3875 17.779 18.8625 17.029 18.5875 16.9165C18.3 16.8165 18.1 16.7665 17.8875 17.0665C17.675 17.379 17.0875 18.079 16.9125 18.279C16.7375 18.4915 16.55 18.5165 16.2375 18.354C15.925 18.204 14.925 17.8665 13.75 16.8165C12.825 15.9915 12.2125 14.979 12.025 14.6665C11.85 14.354 12 14.1915 12.1625 14.029C12.3 13.8915 12.475 13.6665 12.625 13.4915C12.775 13.3165 12.8375 13.179 12.9375 12.979C13.0375 12.7665 12.9875 12.5915 12.9125 12.4415C12.8375 12.2915 12.2125 10.7665 11.9625 10.1415C11.7125 9.54148 11.45 9.61648 11.2625 9.60398H10.6625C10.45 9.60398 10.125 9.67898 9.8375 9.99148C9.5625 10.304 8.7625 11.054 8.7625 12.579C8.7625 14.104 9.875 15.579 10.025 15.779C10.175 15.9915 12.2125 19.1165 15.3125 20.454C16.05 20.779 16.625 20.9665 17.075 21.104C17.8125 21.3415 18.4875 21.304 19.025 21.229C19.625 21.1415 20.8625 20.479 21.1125 19.754C21.375 19.029 21.375 18.4165 21.2875 18.279C21.2 18.1415 21.0125 18.079 20.7 17.929Z" fill="black"/>
</g>
</svg>

<svg width="30" height="31" fill="none" xmlns="http://www.w3.org/2000/svg"><path d="M23.813 6.579a12.27 12.27 0 0 0-8.763-3.638c-6.825 0-12.388 5.563-12.388 12.388 0 2.188.575 4.313 1.65 6.188l-1.75 6.425 6.563-1.726a12.39 12.39 0 0 0 5.925 1.513c6.825 0 12.387-5.563 12.387-12.387a12.31 12.31 0 0 0-3.625-8.763Zm-8.763 19.05c-1.85 0-3.663-.5-5.25-1.438l-.375-.224-3.9 1.024 1.037-3.8-.25-.387a10.33 10.33 0 0 1-1.575-5.475c0-5.675 4.626-10.3 10.3-10.3 2.75 0 5.338 1.075 7.275 3.025a10.227 10.227 0 0 1 3.013 7.287c.025 5.676-4.6 10.288-10.275 10.288Zm5.65-7.7c-.313-.15-1.837-.9-2.113-1.012-.287-.1-.487-.15-.7.15-.212.312-.8 1.012-.974 1.212-.175.212-.363.238-.675.075-.313-.15-1.313-.488-2.488-1.537-.925-.825-1.537-1.838-1.725-2.15-.175-.313-.025-.476.137-.638.138-.137.313-.363.463-.537.15-.176.213-.313.313-.513.1-.212.05-.387-.026-.537-.075-.15-.7-1.675-.95-2.3-.25-.6-.512-.526-.7-.538h-.6c-.212 0-.537.075-.825.387-.274.313-1.075 1.063-1.075 2.588 0 1.525 1.113 3 1.263 3.2.15.213 2.188 3.337 5.287 4.675.738.325 1.313.512 1.763.65.738.238 1.413.2 1.95.125.6-.087 1.838-.75 2.088-1.475.262-.725.262-1.338.175-1.475-.088-.137-.276-.2-.588-.35Z" fill="#000"/></svg>
